X: 38197
T: Spring In Her Step
R: slip jig
M: 9/8
K: Dminor
"Gm"d'3 d'c'a c'd'g|"F" a2 c' gae "Bb" d2 c|d2 a gaf gfg|"Dm"a3 gfd "C" fdc|
"Gm"d'2 d' d'c'a gac'|"F" a3 agf "Bb" d2 c|cdd fdg a2 d|"Dm"cdd fdg "C" d/e/dc}|
"Gm"d'2 f' d'c'a c'd'g|"F" a2 c' gae "Bb" d2 c|d2 a gaf gfg|"Dm"a3 gfd "C" gaf'|
"Gm"d'2 g' f'd'c' ac'/d'/f'|"F"d'2 c' ac'g a2 g|"Bb" de/f/g adc' d'2 g|"Dm"fd'c' agf "C"gac'|

